X: 1
T: Illan hiljaisuudessa
O: Kiikoinen
M: 3/4
L: 1/8
K: Am
EE \
|: "Am"A4   A2  |     E4  E2 | "Dm"(D3 E) (DC) |  "E7"B,4  A,B,\
|  "Am"C3B, A,B,|  "F"C4  D2 |  "C"E6-         |  "E7"E2z2 EE :|
|: "E7"E4   ^G2 |     B4  EE | "Am"(A3^G) (AB) | "(F)"c4   cc  \
|  "Dm"(B3c) BA | "E7"^G4 E2 | "Am"A6-         |      A2z2 AA :|
|: "Dm"d3e   dc | "E7"B4  e2 | "Am"c3d     cB  |      A4   B2 \
|      c3B   AB |  "F"c4  d2 |  "C"e6-         |  "E7"e2z2 ee |
|  "Dm"d3e   dc | "E7"B4  e2 | "Am"c3d     cB  |      A4   c2 \
|  "Dm"B3f   ed | "E7"c4  B2 |1 "Am"A6- | A2z2 ee :|2 "Am"A6- | A2z2 |]
